X: 331
T: Perth Hunt
%R: reel
Z: 2014 John Chambers <jc:trillian.mit.edu>
B: Preston "Twenty four Country Dances for the Year 1798" p.146 #1
F: http://www.vwml.org/browse/browse-collections-dance-tune-books/browse-prestons1798# 2014-8-10
N: The rhythms at the strain boundaries aren't right; not fixed.
M: C|
L: 1/8
K: A
|:\
E2CE A,ECE | A,ECE FB,B,2 |\
E2CE A,ECE | ceBd cAA2 :|\
e |\
(c/B/A) eA fAeA | (c/B/A) ec dBBd |
(c/B/A) eA fAeA | EdcB cAAe |\
(c/B/A) eA fAeA | (c/B/A) ec dBBd |\
ceAc dfBd | EdcB cA A :|
% - - - - - - - - - - - - - - - - - - - - - - - - -
%%begintext align
%% Sett and change sides .| Sett and change back
%% again :| Lead down up again :|. Allemande :|:
%%endtext
% - - - - - - - - - - - - - - - - - - - - - - - - -

%%sep 1 1 500
%%sep 1 1 500
